assets/img/braze_icons/arrow-circle-broken-down-right.svg

<svg fill="none" height="24" viewBox="0 0 24 24" width="24" xmlns="http://www.w3.org/2000/svg"><path d="m2.53587 6.38856c.26302-.44289.39453-.66433.64178-.79582.19731-.10494.48949-.14158.7066-.0886.27205.06637.4814.27572.90009.69441l7.62986 7.62985h-3.24263c-.55228 0-1 .4477-1 1s.44772 1 1 1h5.65683c.5523 0 1-.4477 1-1v-5.65683c0-.55228-.4477-1-1-1s-1 .44772-1 1v3.24263l-7.62985-7.62986c-.41869-.41869-.62803-.62804-.69441-.90009-.05298-.21711-.01634-.50929.0886-.7066.13149-.24725.35293-.37876.79582-.64178 4.22114-2.5068988 9.75874-1.944912 13.38964 1.68596 4.2957 4.29576 4.2957 11.26057 0 15.55637-4.2958 4.2957-11.26061 4.2957-15.55637 0-3.630872-3.6309-4.1928584-9.1685-1.68596-13.38964z" fill="#801ed7"/></svg>

<svg width="24" height="24" viewBox="0 0 24 24" fill="none" xmlns="http://www.w3.org/2000/svg">
<path d="M2.53587 6.38856C2.79889 5.94567 2.9304 5.72423 3.17765 5.59274C3.37496 5.4878 3.66714 5.45116 3.88425 5.50414C4.1563 5.57051 4.36565 5.77986 4.78434 6.19855L12.4142 13.8284H9.17157C8.61929 13.8284 8.17157 14.2761 8.17157 14.8284C8.17157 15.3807 8.61929 15.8284 9.17157 15.8284H14.8284C15.3807 15.8284 15.8284 15.3807 15.8284 14.8284V9.17157C15.8284 8.61929 15.3807 8.17157 14.8284 8.17157C14.2761 8.17157 13.8284 8.61929 13.8284 9.17157L13.8284 12.4142L6.19855 4.78434C5.77986 4.36565 5.57052 4.1563 5.50414 3.88425C5.45116 3.66714 5.4878 3.37496 5.59274 3.17765C5.72423 2.9304 5.94567 2.79889 6.38856 2.53587C10.6097 0.0289712 16.1473 0.590958 19.7782 4.22183C24.0739 8.51759 24.0739 15.4824 19.7782 19.7782C15.4824 24.0739 8.51759 24.0739 4.22183 19.7782C0.590958 16.1473 0.0289716 10.6097 2.53587 6.38856Z" fill="#801ED7"/>
</svg>
